source/svgs/bowtie/uE924-chart-column.svg

<svg xmlns="http://www.w3.org/2000/svg" viewBox="0 0 448 448" enable-background="new 0 0 448 448"><path d="M0 0v448h448v-448h-448zm416 416h-32v-320h-64v320h-64v-160h-64v160h-64v-224h-64v224h-32v-384h384v384z"/></svg>

<svg xmlns="http://www.w3.org/2000/svg" viewBox="0 0 448 448"><path d="M0 0v448h448V0H0zm416 416h-32V96h-64v320h-64V256h-64v160h-64V192H64v224H32V32h384v384z"/></svg>
